X:1
T:Dem in der Finsternis wandelnden Volk
T:August Eduard Grell
T:Dem in der Finsternis wandelnden Volk
T:Weihnachts-Motette
T:CPDL   —   Creative Commons Attribution Non Commercial 3.0
T:CPDL   —   Creative Commons Attribution Non Commercial 3.0
T:CPDL   —   Creative Commons Attribution Non Commercial 3.0
C:August Eduard Grell
Z:CPDL   —   Creative Commons Attribution Non Commercial 3.0
%%score [ 1 2 3 4 ]
L:1/8
M:4/4
K:F
V:1 treble nm="Sopran"
V:2 treble nm="Alt"
V:3 treble-8 nm="Tenor"
V:4 bass nm="Bass"
V:1
!mf! E4 E2 E2 | F3 F F4 | G4 F2 G2 | A4 A2 A2 | c4"^cresc." c4 | d4 d4 | %6
w: Dem in der|Fins- ter- nis|wan- deln- den|Vol- ke er-|schien ein|hel- les|
!f! !breath!!fermata!e4!mf! c2 c2 | c6 c2 |!<(! ^c3 c d2 e2!<)! | f4!pp! F2 F2 | F4 F2 F2 | %11
w: Licht. Es ist|Tag ge-|wor- den ü- ber|die, die vom|Schat- ten des|
 F4 F2 F2 | F4 B4 | F8 | E8 ||[K:D]!f! F4 E4 | D4 D2 D2 | (D2 G2) F2 E2 | D4 C4 | E4 E4 | %20
w: To- des um-|ge- ben|wa-|ren.|Herr, du|hast dei- ne|Er- * de ge-|seg- net,|Herr, du|
 A4 G2 F2 | B4 A2 G2 | F4 E4 | A8- | A4 ^G2 G2 | (A6 =G2 | F4) F2 G2 |!>(! E4 E4 | F8!>)! |] %29
w: hast dei- ne|Er- de ge-|seg- net,|und|_ uns'- re|Ban- *|* de hast|du ge-|löst.|
V:2
!mf! ^C4 C2 C2 | D3 D D4 | E4 F2 E2 | F4 F2 F2 | G4"^cresc." E4 | A4 G4 | %6
w: ||||||
!f! !breath!!fermata!G4!mf! G2 G2 | G6 G2 |!<(! A3 A A2 A2!<)! | A4!pp! D2 D2 | D4 D2 D2 | %11
w: |||||
 _E4 E2 E2 | D4 D4 | D8 | ^C8 ||[K:D]!f! D4 C4 | B,4 B,2 B,2 | B,4 B,2 B,2 | A,4 A,4 | C4 C4 | %20
w: |||||||||
 D4 C2 D2 | D4 D2 E2 | D4 C4 | (A2 G2) F2 E2 | (^D2 F2 E4- | E2 C2 D2 E2 | D4) D2 D2 |!>(! D4 C4 | %28
w: |||und _ uns'- re|Ban- * *||* de hast|du ge-|
 D8!>)! |] %29
w: löst.|
V:3
!mf! A4 A2 A2 | A3 A A4 | c4 c2 B2 | c4 c2 c2 | c4"^cresc." c4 | c4 =B4 | %6
w: Dem in der|Fins- ter- nis|wan- deln- den|Vol- ke er-|schien ein|hel- les|
!f! !breath!!fermata!c4!mf! e2 e2 | e6 e2 |!<(! e3 e d2 ^c2!<)! | d4!pp! A2 A2 | A4 A2 A2 | %11
w: Licht. Es ist|Tag ge-|wor- den ü- ber|die, die vom|Schat- ten des|
 A4 A2 A2 | B4 B4 | A8 | A8 ||[K:D]!f! A4 (A2 G2) | F4 F2 F2 | G4 G2 G2 | F4 E4 | A4 A4 | %20
w: To- des um-|ge- ben|wa-|ren.|Herr, du _|hast dei- ne|Er- de ge-|seg- net,|Herr, du|
 A4 A2 A2 | G4 A2 B2 | A4 A4 | (f2 e2) d2 c2 | (B8 | A8- | A4) B2 B2 |!>(! A4 A4 | A8!>)! |] %29
w: hast dei- ne|Er- de ge-|seg- net,|und _ uns'- re|Ban-||* de hast|du ge-|löst.|
V:4
!mf! A,,4 A,,2 A,,2 | D,3 D, D,4 | (C,2 B,2) A,2 G,2 | F,4 F,2 F,2 | E,4"^cresc." A,4 | F,4 G,4 | %6
w: ||||||
!f! !breath!!fermata!C,4!mf! C,2 C,2 | C6 B,2 |!<(! A,3 G, F,2 E,2!<)! | D,4!pp! D,2 D,2 | %10
w: ||||
 D,4 D,2 D,2 | C,4 C,2 C,2 | B,,4 G,,4 | A,,8 | A,,8 ||[K:D]!f! D,4 A,,4 | B,,4 B,,2 B,,2 | %17
w: |||||||
 G,,4 G,,2 G,,2 | A,,4 A,,4 | A,4 G,4 | F,4 E,2 D,2 | G,4 F,2 G,2 | A,4 A,4 | z8 | B,,4 E,2 D,2 | %25
w: |||||||und uns'- re|
 (C,2 A,,2 B,,2 C,2 | D,2 C,2) B,,2 G,,2 |!>(! A,,4 A,,4 | D,8!>)! |] %29
w: Ban- * * *|* * de hast|du ge-|löst.|

